X:1
T: The Bonnie Lass O' Bon Accord
C:J. Scott Skinner
R:Strathspey
Q:128
K:A
M:4/4
L:1/16
E4|A6B2 c6B2|A4A,4 C4E4|ABAG A2f2 e2c2 B2A2|B8 B4c4|A6B2 c6B2|A4C4 E4=G4|F2D2 F2A2 G2E2 G2B2|A8-A4E4|
A6B2 c6B2|A4A,4 C4E4|ABAG A2f2 e2c2 B2A2|B8 B4c4|A6B2 c6B2|A4C4 E4=G4|F2D2 F2A2 G2E2 G2B2|A8-A4 ((3efg)|
a6c2 d6f2|e4A4 a4 g2f2|e4A4 f2e2 d2c2|B8 B4((3efg)|a6c2 d4f4|e2A2 c2A2 a4=G4|F2D2 F2A2 G2E2 G2B2 A8-A4((3efg)|
a6c2 d6f2|e4A4 a4g2f2|e4A4 f2e2 d2c2|B8 B6c2|A,2C2 E2A2 c6B2|A4C4 E6=G2|F2D2 F2A2 G2E2 G2B2|A8-A4||
